src/fonts/icomoon/icons/rows.svg

<!-- Generated by IcoMoon.io -->
<svg version="1.1" xmlns="http://www.w3.org/2000/svg" width="1390" height="1024" viewBox="0 0 1390 1024">
<title></title>
<g id="icomoon-ignore">
</g>
<path d="M146.286 0h-146.286v146.286h146.286v-146.286zM1389.714 0h-1170.286v146.286h1170.286v-146.286zM0 292.571h146.286v146.286h-146.286v-146.286zM1389.714 292.571h-1170.286v146.286h1170.286v-146.286zM0 585.143h146.286v146.286h-146.286v-146.286zM1389.714 585.143h-1170.286v146.286h1170.286v-146.286zM0 877.714h146.286v146.286h-146.286v-146.286zM1389.714 877.714h-1170.286v146.286h1170.286v-146.286z"></path>
</svg>

<svg xmlns="http://www.w3.org/2000/svg" width="1390" height="1024"><path d="M146.286 0H0v146.286h146.286V0zm1243.428 0H219.428v146.286h1170.286V0zM0 292.571h146.286v146.286H0V292.571zm1389.714 0H219.428v146.286h1170.286V292.571zM0 585.143h146.286v146.286H0V585.143zm1389.714 0H219.428v146.286h1170.286V585.143zM0 877.714h146.286V1024H0V877.714zm1389.714 0H219.428V1024h1170.286V877.714z"/></svg>
